**kern	**kern
*part1	*part1
*staff2	*staff1
*I"Piano	*
*clefF4	*clefG2
*k[f#c#g#d#a#]	*k[f#c#g#d#a#]
=1	=1
8r	8A#L 8c# 8e 8f#
(8FF#L	8A# 8c# 8e 8f#
8G#	8A# 8c# 8e 8f#
8F#J)	8A#J 8c# 8e 8f#
=	=
!	!LO:TX:b:i:t=cres.
8r	8A#L 8c# 8e 8f#
(8FF#L	8A# 8c# 8e 8f#
8G#	8A# 8c# 8e 8f#
8F#J)	8A#J 8c# 8e 8f#
=	=
8r	8A#L 8c# 8e 8f#
(8C#L	8A# 8c# 8e 8f#
8G#	8A# 8c# 8e 8f#
8F#J)	8A#J 8c# 8e 8f#
=	=
8D#L 8F#	8BL 8f#
8D#J 8F#	8BJ 8f#
8C#L 8F#	8A#L 8e 8f#
8C#J 8F#	8A#J 8e 8f#
=	=
8C#L 8F#	8A#L 8e 8f#
8BB 8F#	8B 8d# 8f#
8AA# 8F#	8c# 8f#
8GG#J 8F#	8BJ 8d# 8f#
=	=
2FF#	8A#L 8e 8f#
.	8E< 8F#< 8A#< 8c#<
.	8E< 8F#< 8A#< 8c#<
.	8E'J< 8F#< 8A#< 8c#<
=	=
*^	*
8EL 8F#	4FF#	4A# 4c#
8EJ 8F#	.	.
8D#L 8F#	4BBB 4FF#	4B 4d#
8D#J 8F#	.	.
*v	*v	*
=	=
*-	*-
!!!system-decoration: {(s1,s2)}
!!!RDF**kern: < = below
